!! 00000] TT[WS
!!!OTL: Jie shunshun
!!!ARE: Asia, China, Shanxi Linxian
!! Ethnic Group: Han
!! WII, 89 (2)
!!!SCT: J0531
!!!YEM: Copyright 1995, estate of Helmut Schaffrath.
**kern
*ICvox
*Ivox
*M2/4
*k[b-e-]
*B-:
{8.ddd
16ccc
8bb-
8bb-
=1
8bb-
8dd
4cc
=2
8.ddd
16ccc
8bb-
8bb-
=3
8bb-
8dd
4cc}
=4
{8ccc
8ccc
8ddd
8ccc
=5
8bb-
8dd
4cc
=6
8ff
16ff
16gg
8ff
8cc
=7
16dd
16ff
16dd
16cc
4b-}
==
!!!AGN: Xiaodiao. Qingge, Sichun
!!!ONB: ESAC (Essen Associative Code) Database: CHINA
!!!AMT: simple duple
!!!AIN: vox
!!!EED: Helmut Schaffrath
!!!EEV: 1.0
*-
